X: 37439
T: Sliabh Lucan, The
R: polka
M: 2/4
K: Eminor
EB B>A|BG E/F/G|FA A>B|AG F/E/D|
EB B>A|BG E>f|gf ed|1 BA A2:|2 BA Af||
g2 g>f|gf e>f|ge ef|gb af|
[1 g2 g>f|gf e>g|fd de|fg af:|
[2 b>b af|ge fd|eB c/B/A|BG AF||

